tipitek/img/Setting.svg

<svg width="32" height="32" viewBox="0 0 32 32" fill="none" xmlns="http://www.w3.org/2000/svg">
<path fill-rule="evenodd" clip-rule="evenodd" d="M16.3538 2.66736C17.3085 2.66736 18.2365 3.05936 18.9018 3.74069C19.5658 4.42603 19.9325 5.36602 19.9045 6.31936C19.9072 6.53402 19.9778 6.78202 20.1058 6.99936C20.3178 7.35936 20.6525 7.61269 21.0498 7.71669C21.4472 7.81536 21.8632 7.76203 22.2165 7.55269C23.9232 6.57803 26.0952 7.16202 27.0698 8.85536L27.9005 10.294C27.9218 10.3327 27.9405 10.37 27.9565 10.4087C28.8392 12.0767 28.2498 14.1767 26.6098 15.1354C26.3712 15.2727 26.1778 15.4647 26.0445 15.6967C25.8378 16.0554 25.7805 16.482 25.8845 16.874C25.9912 17.274 26.2458 17.606 26.6045 17.8114C27.4138 18.2767 28.0178 19.0607 28.2592 19.966C28.5005 20.87 28.3685 21.8514 27.8978 22.6607L27.0125 24.1354C26.0378 25.81 23.8658 26.39 22.1765 25.414C21.9512 25.2847 21.6912 25.214 21.4325 25.2074H21.4245C21.0392 25.2074 20.6432 25.3714 20.3552 25.658C20.0632 25.95 19.9032 26.3394 19.9058 26.7527C19.8965 28.7114 18.3032 30.2954 16.3538 30.2954H14.6832C12.7245 30.2954 11.1312 28.7034 11.1312 26.7447C11.1285 26.5034 11.0592 26.2527 10.9298 26.0354C10.7205 25.67 10.3818 25.4087 9.99116 25.3047C9.60316 25.2007 9.17782 25.258 8.82849 25.4607C7.99116 25.9274 7.00582 26.0407 6.10449 25.7874C5.20449 25.5327 4.42716 24.914 3.97116 24.094L3.13782 22.658C2.16316 20.9674 2.74316 18.8007 4.43116 17.8247C4.90982 17.5487 5.20716 17.034 5.20716 16.482C5.20716 15.93 4.90982 15.414 4.43116 15.138C2.74182 14.1567 2.16316 11.9847 3.13649 10.294L4.04049 8.81003C5.00182 7.13803 7.17516 6.54869 8.86982 7.52202C9.10049 7.65936 9.35116 7.72869 9.60582 7.73136C10.4365 7.73136 11.1312 7.04602 11.1445 6.20336C11.1392 5.27402 11.5058 4.38203 12.1738 3.70869C12.8445 3.03669 13.7352 2.66736 14.6832 2.66736H16.3538ZM16.3538 4.66736H14.6832C14.2698 4.66736 13.8832 4.82869 13.5912 5.11936C13.3005 5.41136 13.1418 5.79936 13.1445 6.21269C13.1165 8.16202 11.5232 9.73136 9.59382 9.73136C8.97516 9.72469 8.37916 9.55802 7.86182 9.24869C7.13516 8.83536 6.18582 9.09002 5.76049 9.83002L4.85782 11.314C4.44449 12.0314 4.69782 12.9794 5.43382 13.4074C6.52582 14.0394 7.20716 15.218 7.20716 16.482C7.20716 17.746 6.52582 18.9234 5.43116 19.5567C4.69916 19.9807 4.44582 20.9234 4.86982 21.6567L5.71116 23.1074C5.91916 23.482 6.25916 23.7527 6.65249 23.8634C7.04449 23.9727 7.47649 23.926 7.83649 23.726C8.36582 23.4154 8.98182 23.254 9.60049 23.254C9.90582 23.254 10.2112 23.2927 10.5098 23.3727C11.4112 23.6154 12.1938 24.218 12.6578 25.0274C12.9592 25.5354 13.1258 26.1287 13.1312 26.734C13.1312 27.6007 13.8272 28.2954 14.6832 28.2954H16.3538C17.2058 28.2954 17.9018 27.6047 17.9058 26.7527C17.9005 25.8114 18.2685 24.9167 18.9418 24.2434C19.6058 23.5794 20.5338 23.1807 21.4618 23.2074C22.0698 23.222 22.6552 23.386 23.1712 23.6794C23.9138 24.1047 24.8618 23.8514 25.2912 23.118L26.1765 21.642C26.3738 21.302 26.4312 20.8754 26.3258 20.482C26.2218 20.0887 25.9605 19.7474 25.6085 19.546C24.7845 19.0714 24.1965 18.306 23.9525 17.3887C23.7112 16.4887 23.8432 15.506 24.3138 14.6967C24.6205 14.1634 25.0698 13.714 25.6085 13.4047C26.3312 12.982 26.5845 12.0367 26.1645 11.3007C26.1472 11.2714 26.1312 11.2407 26.1178 11.2087L25.3365 9.85402C24.9112 9.11403 23.9645 8.85936 23.2218 9.28203C22.4192 9.75669 21.4645 9.89269 20.5472 9.65136C19.6312 9.41402 18.8632 8.83402 18.3845 8.01536C18.0778 7.50336 17.9112 6.90736 17.9058 6.30069C17.9178 5.84469 17.7578 5.43536 17.4672 5.13536C17.1778 4.83669 16.7712 4.66736 16.3538 4.66736ZM15.5244 11.9662C18.0137 11.9662 20.039 13.9928 20.039 16.4822C20.039 18.9715 18.0137 20.9955 15.5244 20.9955C13.035 20.9955 11.0097 18.9715 11.0097 16.4822C11.0097 13.9928 13.035 11.9662 15.5244 11.9662ZM15.5244 13.9662C14.1377 13.9662 13.0097 15.0955 13.0097 16.4822C13.0097 17.8688 14.1377 18.9955 15.5244 18.9955C16.911 18.9955 18.039 17.8688 18.039 16.4822C18.039 15.0955 16.911 13.9662 15.5244 13.9662Z" fill="#30CBFF"/>
</svg>

<svg width="32" height="32" fill="none" xmlns="http://www.w3.org/2000/svg"><path fill-rule="evenodd" clip-rule="evenodd" d="M16.354 2.667c.954 0 1.883.392 2.548 1.074a3.578 3.578 0 0 1 1.002 2.578c.003.215.074.463.202.68.212.36.546.614.944.718.397.098.813.045 1.166-.164 1.707-.975 3.88-.391 4.854 1.302l.83 1.439c.022.039.04.076.056.115a3.564 3.564 0 0 1-1.346 4.726c-.239.138-.432.33-.566.562a1.565 1.565 0 0 0-.16 1.177c.107.4.362.732.72.937a3.56 3.56 0 0 1 1.655 2.155c.241.904.11 1.885-.361 2.695l-.886 1.474a3.553 3.553 0 0 1-4.835 1.279c-.226-.13-.486-.2-.744-.207h-.009c-.385 0-.78.164-1.069.451a1.525 1.525 0 0 0-.45 1.095 3.56 3.56 0 0 1-3.551 3.542h-1.67a3.555 3.555 0 0 1-3.553-3.55 1.435 1.435 0 0 0-.201-.71 1.544 1.544 0 0 0-.939-.73 1.542 1.542 0 0 0-1.163.156 3.608 3.608 0 0 1-2.724.326 3.575 3.575 0 0 1-2.133-1.693l-.833-1.436a3.544 3.544 0 0 1 1.293-4.833c.479-.276.776-.791.776-1.343 0-.552-.297-1.068-.776-1.344a3.558 3.558 0 0 1-1.295-4.844L4.04 8.81c.962-1.672 3.135-2.261 4.83-1.288.23.137.481.207.736.21.83 0 1.525-.686 1.539-1.529a3.506 3.506 0 0 1 1.029-2.494 3.52 3.52 0 0 1 2.51-1.042h1.67zm0 2h-1.67a1.537 1.537 0 0 0-1.54 1.546c-.027 1.949-1.62 3.518-3.55 3.518a3.44 3.44 0 0 1-1.732-.482 1.553 1.553 0 0 0-2.102.581l-.902 1.484c-.414.717-.16 1.665.576 2.093a3.565 3.565 0 0 1 1.773 3.075 3.563 3.563 0 0 1-1.776 3.075 1.54 1.54 0 0 0-.561 2.1l.841 1.45c.208.375.548.646.941.756.392.11.824.063 1.184-.137a3.5 3.5 0 0 1 1.764-.472c.306 0 .611.039.91.119a3.558 3.558 0 0 1 2.148 1.654c.301.508.468 1.102.473 1.707 0 .867.696 1.561 1.552 1.561h1.67c.853 0 1.549-.69 1.553-1.542a3.504 3.504 0 0 1 1.036-2.51c.664-.664 1.592-1.062 2.52-1.036a3.63 3.63 0 0 1 1.71.472 1.56 1.56 0 0 0 2.12-.561l.884-1.476a1.542 1.542 0 0 0-.567-2.096 3.516 3.516 0 0 1-1.657-2.157c-.24-.9-.109-1.883.362-2.692a3.519 3.519 0 0 1 1.294-1.292 1.555 1.555 0 0 0 .556-2.104.756.756 0 0 1-.046-.092l-.781-1.355a1.553 1.553 0 0 0-2.115-.572 3.488 3.488 0 0 1-2.675.37 3.506 3.506 0 0 1-2.163-1.637 3.406 3.406 0 0 1-.478-1.714 1.59 1.59 0 0 0-.439-1.166 1.557 1.557 0 0 0-1.113-.468zm-.83 7.3a4.52 4.52 0 0 1 4.515 4.515 4.519 4.519 0 0 1-4.515 4.514 4.519 4.519 0 0 1-4.514-4.514 4.52 4.52 0 0 1 4.514-4.516zm0 2a2.519 2.519 0 0 0-2.514 2.515 2.516 2.516 0 0 0 2.514 2.514 2.516 2.516 0 0 0 2.515-2.514 2.519 2.519 0 0 0-2.515-2.516z" fill="#30CBFF"/></svg>
